svgs/sharp-light/house-chimney-user.svg

<svg xmlns="http://www.w3.org/2000/svg" viewBox="0 0 576 512"><!--! Font Awesome Pro 6.6.0 by @fontawesome - https://fontawesome.com License - https://fontawesome.com/license (Commercial License) Copyright 2024 Fonticons, Inc. --><path d="M298.6 12L288 2.7 277.4 12 5.4 252l21.2 24L64 243l0 253 0 16 16 0 416 0 16 0 0-16 0-253 37.4 33 21.2-24-58.9-52 .3 0 0-152 0-16-16 0-96 0-16 0 0 16 0 39.4L298.6 12zM480 64l0 108.1-64-56.5L416 64l64 0zM96 480l0-265.3L288 45.3 480 214.7 480 480 96 480zM256 224a32 32 0 1 1 64 0 32 32 0 1 1 -64 0zm96 0a64 64 0 1 0 -128 0 64 64 0 1 0 128 0zM231.1 352l113.9 0 21.3 64 33.7 0-32-96-160 0-32 96 33.7 0 21.3-64z"/></svg>

<svg xmlns="http://www.w3.org/2000/svg" viewBox="0 0 576 512"><!--! Font Awesome Pro 6.4.2 by @fontawesome - https://fontawesome.com License - https://fontawesome.com/license (Commercial License) Copyright 2023 Fonticons, Inc. --><path d="M298.6 12L288 2.7 277.4 12 5.4 252l21.2 24L64 243V496v16H80 496h16V496 243l37.4 33 21.2-24-58.9-52h.3V48 32H496 400 384V48 87.4L298.6 12zM480 64V172.1l-64-56.5V64h64zM96 480V214.7L288 45.3 480 214.7V480H96zM256 224a32 32 0 1 1 64 0 32 32 0 1 1 -64 0zm96 0a64 64 0 1 0 -128 0 64 64 0 1 0 128 0zM231.1 352H344.9l21.3 64H400l-32-96H208l-32 96h33.7l21.3-64z"/></svg>
